app/assets/icons/x.svg

<svg xmlns="http://www.w3.org/2000/svg" fill="none" viewBox="0 0 16 16">
<path fill="#AFB7C2" d="M3.64645 11.6464c-.19527.1953-.19527.5119 0 .7072.19526.1952.51184.1952.7071 0L8 8.70711l3.6464 3.64649c.1953.1952.5119.1952.7072 0 .1952-.1953.1952-.5119 0-.7072L8.70711 8l3.64649-3.64645c.1952-.19526.1952-.51184 0-.7071-.1953-.19527-.5119-.19527-.7072 0L8 7.29289 4.35355 3.64645c-.19526-.19527-.51184-.19527-.7071 0-.19527.19526-.19527.51184 0 .7071L7.29289 8l-3.64644 3.6464Z"></path>
</svg>

<svg width="16" height="16" viewBox="0 0 16 16" fill="none" xmlns="http://www.w3.org/2000/svg">
<path d="M3.64645 11.6464C3.45118 11.8417 3.45118 12.1583 3.64645 12.3536C3.84171 12.5488 4.15829 12.5488 4.35355 12.3536L8 8.70711L11.6464 12.3536C11.8417 12.5488 12.1583 12.5488 12.3536 12.3536C12.5488 12.1583 12.5488 11.8417 12.3536 11.6464L8.70711 8L12.3536 4.35355C12.5488 4.15829 12.5488 3.84171 12.3536 3.64645C12.1583 3.45118 11.8417 3.45118 11.6464 3.64645L8 7.29289L4.35355 3.64645C4.15829 3.45118 3.84171 3.45118 3.64645 3.64645C3.45118 3.84171 3.45118 4.15829 3.64645 4.35355L7.29289 8L3.64645 11.6464Z" fill="#AFB7C2"/>
</svg>
